svgs/socialMedia/lastFm.svg

<svg width="20" height="20" viewBox="0 0 20 20" color="inherit" fill="none" xmlns="http://www.w3.org/2000/svg">
    <title>LastFm icon</title>
    <path d="M8.82016 14.3194L8.08696 12.3364C8.08696 12.3364 6.89552 13.6585 5.10886 13.6585C3.52792 13.6585 2.40547 12.2909 2.40547 10.1026C2.40547 7.29901 3.8257 6.29609 5.22338 6.29609C7.23928 6.29609 7.88068 7.59529 8.43064 9.25931L9.16384 11.5387C9.89678 13.7496 11.2714 15.5275 15.2347 15.5275C18.0757 15.5275 19.9999 14.6614 19.9999 12.3821C19.9999 10.5358 18.946 9.57841 16.9757 9.12249L15.5095 8.80341C14.5016 8.57549 14.2039 8.16517 14.2039 7.48133C14.2039 6.70633 14.8223 6.25043 15.8304 6.25043C16.9301 6.25043 17.5256 6.66077 17.6173 7.64087L19.9082 7.36729C19.725 5.31589 18.3047 4.47253 15.9679 4.47253C13.9061 4.47253 11.8901 5.24753 11.8901 7.73205C11.8901 9.28203 12.6461 10.2623 14.5474 10.7181L16.1054 11.0827C17.2737 11.3562 17.6631 11.8349 17.6631 12.496C17.6631 13.3392 16.8384 13.6811 15.2806 13.6811C12.9667 13.6811 12.0047 12.4731 11.4547 10.8091L10.6987 8.52985C9.73671 5.56663 8.2016 4.47255 5.15461 4.47255C1.787 4.47255 0 6.59233 0 10.1937C0 13.6584 1.78702 15.5274 4.99444 15.5274C7.58285 15.5274 8.82018 14.3194 8.82018 14.3194H8.82016Z" fill="currentColor"/>
</svg>

<svg color="inherit" fill="none" viewBox="0 0 20 20">
    <path d="M8.82 14.32l-.733-1.984s-1.191 1.322-2.978 1.322c-1.581 0-2.704-1.367-2.704-3.555 0-2.804 1.42-3.807 2.818-3.807 2.016 0 2.658 1.3 3.208 2.963l.733 2.28c.733 2.21 2.107 3.989 6.07 3.989 2.842 0 4.766-.867 4.766-3.146 0-1.846-1.054-2.804-3.024-3.26l-1.466-.319c-1.008-.228-1.306-.638-1.306-1.322 0-.775.618-1.23 1.626-1.23 1.1 0 1.696.41 1.787 1.39l2.291-.274c-.183-2.051-1.603-2.894-3.94-2.894-2.062 0-4.078.775-4.078 3.26 0 1.549.756 2.53 2.657 2.985l1.558.365c1.169.273 1.558.752 1.558 1.413 0 .843-.825 1.185-2.382 1.185-2.314 0-3.276-1.208-3.826-2.872l-.756-2.28c-.962-2.962-2.497-4.056-5.544-4.056C1.787 4.473 0 6.593 0 10.193c0 3.465 1.787 5.334 4.994 5.334 2.589 0 3.826-1.208 3.826-1.208z" fill="currentColor"/>
</svg>
